F[ERK1
CUT[DA DROBEN AUF JENEM BERGE]
REG[Europa, Mitteleuropa, Deutschland]
KEY[E0419B 16  G 6/8]
MEL[-5_  1_.2345_.654  3__2_1__
    2_  3_.45_5_4_3_  2___0_
    34  5_3_5_5_3_5_  6_.76_5__
    4_  3_.43_2_1_2_  1___0_ //] >>
FCT[Liebes - Lied, Liebe]
